SmartNotes/img/footer-icons/donate.svg

<svg width="32px" height="32px" viewBox="0 0 32 32" fill="none" xmlns="http://www.w3.org/2000/svg">
<path d="M16 3C10.486 3 6 7.486 6 13C6 18.514 10.486 23 16 23C21.514 23 26 18.514 26 13C26 7.486 21.514 3 16 3ZM16 5C20.411 5 24 8.589 24 13C24 17.411 20.411 21 16 21C11.589 21 8 17.411 8 13C8 8.589 11.589 5 16 5ZM15 7V8.19C14.2789 8.45215 13.6819 8.97431 13.326 9.654C13.016 10.2524 12.9228 10.9396 13.062 11.599C13.185 12.1727 13.4704 12.6989 13.884 13.115C14.157 13.388 14.482 13.609 14.84 13.762C15.198 13.915 15.59 14 16 14C16.142 14 16.276 14.027 16.396 14.076C16.5148 14.1243 16.6227 14.1959 16.7134 14.2866C16.8041 14.3773 16.8757 14.4852 16.924 14.604C16.973 14.724 17 14.858 17 15C17.0044 15.197 16.949 15.3907 16.8412 15.5556C16.7334 15.7205 16.5782 15.8489 16.396 15.924C16.276 15.973 16.142 16 16 16C15.857 16 15.724 15.973 15.604 15.924C15.4853 15.8755 15.3775 15.8038 15.287 15.713C15.1943 15.6191 15.1212 15.5077 15.072 15.3853C15.0227 15.2629 14.9982 15.1319 15 15H13C13.0001 15.7781 13.3082 16.5244 13.857 17.076C14.1781 17.4035 14.5688 17.6547 15 17.811V19H17V17.81C17.5042 17.6293 17.9514 17.3178 18.2958 16.9076C18.6401 16.4973 18.8694 16.0029 18.96 15.475C19.0835 14.7251 18.9122 13.9565 18.482 13.33C18.265 13.0105 17.9895 12.735 17.67 12.518C17.3462 12.2983 16.9828 12.1434 16.6 12.062C16.4027 12.0208 16.2016 12 16 12C15.857 12 15.724 11.973 15.604 11.924C15.4852 11.8757 15.3773 11.8041 15.2866 11.7134C15.1959 11.6227 15.1243 11.5148 15.076 11.396C15.0252 11.2702 14.9994 11.1357 15 11C15 10.857 15.027 10.724 15.076 10.604C15.1243 10.4852 15.1959 10.3773 15.2866 10.2866C15.3773 10.1959 15.4852 10.1243 15.604 10.076C15.724 10.027 15.858 10 16 10C16.57 10 17 10.43 17 11H19C19.0002 10.6861 18.9503 10.3741 18.852 10.076C18.7048 9.64271 18.4619 9.24815 18.1412 8.92164C17.8206 8.59513 17.4305 8.34506 17 8.19V7H15ZM2 21V29H4V23H9.38C8.53205 22.433 7.75925 21.761 7.08 21H2ZM24.92 21C24.2408 21.761 23.4679 22.433 22.62 23H28V29H30V21H24.92ZM6 25V27H26V25H6Z" fill="#BCBFBF"/>
</svg>

<svg width="32" height="32" fill="none" xmlns="http://www.w3.org/2000/svg"><path d="M16 3C10.486 3 6 7.486 6 13s4.486 10 10 10 10-4.486 10-10S21.514 3 16 3zm0 2c4.411 0 8 3.589 8 8s-3.589 8-8 8-8-3.589-8-8 3.589-8 8-8zm-1 2v1.19a3.076 3.076 0 00-1.674 1.464 2.918 2.918 0 00-.264 1.945c.123.574.408 1.1.822 1.516.273.273.598.494.956.647.358.153.75.238 1.16.238.142 0 .276.027.396.076a.96.96 0 01.528.528c.049.12.076.254.076.396a.976.976 0 01-.604.924c-.12.049-.254.076-.396.076-.143 0-.276-.027-.396-.076a.96.96 0 01-.532-.539A.995.995 0 0115 15h-2c0 .778.308 1.524.857 2.076.321.328.712.579 1.143.735V19h2v-1.19a3.024 3.024 0 001.96-2.335 2.944 2.944 0 00-.478-2.145 3.027 3.027 0 00-1.882-1.268A2.936 2.936 0 0016 12c-.143 0-.276-.027-.396-.076a.96.96 0 01-.528-.528A1.045 1.045 0 0115 11c0-.143.027-.276.076-.396a.96.96 0 01.528-.528c.12-.049.254-.076.396-.076.57 0 1 .43 1 1h2c0-.314-.05-.626-.148-.924A3.045 3.045 0 0017 8.19V7h-2zM2 21v8h2v-6h5.38a12.093 12.093 0 01-2.3-2H2zm22.92 0a12.093 12.093 0 01-2.3 2H28v6h2v-8h-5.08zM6 25v2h20v-2H6z" fill="#BCBFBF"/></svg>
